Module MainModule
!Declarations
!jointtarget
VAR jointtarget jointtarget0:=[[-24.638033,-13.016616,43.688413,49.694682,45.94505,-178.23538],[9E9,9E9,9E9,9E9,9E9,9E9]];
VAR jointtarget jointtarget1:=[[-15.375232,-8.000519,32.4106,30.394303,47.923341,-154.515053],[9E9,9E9,9E9,9E9,9E9,9E9]];
VAR jointtarget jointtarget2:=[[-7.818813,-0.36079,20.323929,16.138218,54.868288,-137.387424],[9E9,9E9,9E9,9E9,9E9,9E9]];
VAR jointtarget jointtarget3:=[[-1.939219,8.851146,7.521546,6.950085,64.403302,-126.438908],[9E9,9E9,9E9,9E9,9E9,9E9]];
VAR jointtarget jointtarget4:=[[2.563133,19.194728,-6.216131,1.053608,75.218041,-119.689655],[9E9,9E9,9E9,9E9,9E9,9E9]];
VAR jointtarget jointtarget5:=[[6.00818,30.709799,-21.5329,-2.996088,86.98341,-115.685244],[9E9,9E9,9E9,9E9,9E9,9E9]];
VAR jointtarget jointtarget6:=[[8.669797,44.394721,-40.587287,-6.199275,100.46859,-113.693523],[9E9,9E9,9E9,9E9,9E9,9E9]];
VAR jointtarget jointtarget7:=[[16.502207,46.319081,-48.834187,-3.913342,106.182221,-106.138267],[9E9,9E9,9E9,9E9,9E9,9E9]];
VAR jointtarget jointtarget8:=[[14.712223,30.633643,-26.192745,-1.665875,90.919882,-107.236538],[9E9,9E9,9E9,9E9,9E9,9E9]];
VAR jointtarget jointtarget9:=[[12.367042,18.013916,-9.223004,1.100289,78.180676,-109.825209],[9E9,9E9,9E9,9E9,9E9,9E9]];
VAR jointtarget jointtarget10:=[[9.229526,6.591925,5.705475,5.177351,66.388568,-114.375242],[9E9,9E9,9E9,9E9,9E9,9E9]];
VAR jointtarget jointtarget11:=[[4.984642,-4.066604,19.722828,11.843142,55.303844,-122.138667],[9E9,9E9,9E9,9E9,9E9,9E9]];
VAR jointtarget jointtarget12:=[[-0.81342,-13.83811,33.229185,23.459227,45.654019,-135.62535],[9E9,9E9,9E9,9E9,9E9,9E9]];
VAR jointtarget jointtarget13:=[[-8.628284,-22.053935,46.351093,43.008421,39.747501,-158.146766],[9E9,9E9,9E9,9E9,9E9,9E9]];
VAR jointtarget jointtarget14:=[[12.323629,-25.141951,49.951616,30.78897,26.862876,-132.558214],[9E9,9E9,9E9,9E9,9E9,9E9]];
VAR jointtarget jointtarget15:=[[16.466129,-15.052884,35.433414,13.487595,38.517351,-113.773325],[9E9,9E9,9E9,9E9,9E9,9E9]];
VAR jointtarget jointtarget16:=[[19.345432,-4.086338,20.723732,6.255606,51.215927,-105.620908],[9E9,9E9,9E9,9E9,9E9,9E9]];
VAR jointtarget jointtarget17:=[[21.380506,7.432138,5.548448,2.689105,64.031831,-101.521937],[9E9,9E9,9E9,9E9,9E9,9E9]];
VAR jointtarget jointtarget18:=[[22.853207,19.621961,-10.687948,0.659664,77.082538,-99.280303],[9E9,9E9,9E9,9E9,9E9,9E9]];
VAR jointtarget jointtarget19:=[[23.948068,33.219068,-29.509632,-0.678413,91.091072,-98.036418],[9E9,9E9,9E9,9E9,9E9,9E9]];
VAR jointtarget jointtarget20:=[[24.776904,51.935455,-57.959696,-1.778382,109.376984,-97.616782],[9E9,9E9,9E9,9E9,9E9,9E9]];
VAR jointtarget jointtarget21:=[[32.774644,51.050496,-51.774622,0.190134,104.516201,-89.199995],[9E9,9E9,9E9,9E9,9E9,9E9]];
VAR jointtarget jointtarget22:=[[32.864222,33.600474,-25.629936,0.0763,87.08763,-89.143016],[9E9,9E9,9E9,9E9,9E9,9E9]];
VAR jointtarget jointtarget23:=[[32.982804,20.129745,-6.961857,-0.14167,72.882366,-88.998679],[9E9,9E9,9E9,9E9,9E9,9E9]];
VAR jointtarget jointtarget24:=[[33.143842,7.893622,9.443117,-0.306001,59.376543,-88.73015],[9E9,9E9,9E9,9E9,9E9,9E9]];
VAR jointtarget jointtarget25:=[[33.367916,-3.690965,24.856315,-0.747399,45.82292,-88.218862],[9E9,9E9,9E9,9E9,9E9,9E9]];
VAR jointtarget jointtarget26:=[[33.689459,-14.742985,39.872838,-1.767942,31.687965,-87.079533],[9E9,9E9,9E9,9E9,9E9,9E9]];
VAR jointtarget jointtarget27:=[[34.162658,-24.888661,54.740612,-5.340712,16.329217,-83.315055],[9E9,9E9,9E9,9E9,9E9,9E9]];
VAR jointtarget jointtarget28:=[[56.372349,-22.548687,57.088106,-49.185956,21.976601,-24.726249],[9E9,9E9,9E9,9E9,9E9,9E9]];
VAR jointtarget jointtarget29:=[[51.114841,-13.894333,43.02873,-19.920089,31.226611,-56.51307],[9E9,9E9,9E9,9E9,9E9,9E9]];
VAR jointtarget jointtarget30:=[[47.46618,-3.634072,28.647444,-8.477833,43.617069,-69.493679],[9E9,9E9,9E9,9E9,9E9,9E9]];
VAR jointtarget jointtarget31:=[[44.903754,7.429572,13.863573,-3.358997,56.433136,-75.539614],[9E9,9E9,9E9,9E9,9E9,9E9]];
VAR jointtarget jointtarget32:=[[43.063579,19.152002,-1.6987,-0.664187,69.388312,-78.708515],[9E9,9E9,9E9,9E9,9E9,9E9]];
VAR jointtarget jointtarget33:=[[41.707421,31.867313,-18.932965,0.99708,82.867531,-80.459841],[9E9,9E9,9E9,9E9,9E9,9E9]];
VAR jointtarget jointtarget34:=[[40.686586,46.965818,-40.583295,2.221532,98.167584,-81.278528],[9E9,9E9,9E9,9E9,9E9,9E9]];
VAR jointtarget jointtarget35:=[[48.899773,45.089692,-35.186397,4.513475,95.079495,-73.291904],[9E9,9E9,9E9,9E9,9E9,9E9]];
VAR jointtarget jointtarget36:=[[50.87857,31.267314,-15.894788,2.211903,81.039896,-71.588381],[9E9,9E9,9E9,9E9,9E9,9E9]];
VAR jointtarget jointtarget37:=[[53.494366,19.290166,0.145354,-0.935439,68.365388,-68.168218],[9E9,9E9,9E9,9E9,9E9,9E9]];
VAR jointtarget jointtarget38:=[[56.989998,8.366357,14.691407,-5.948412,56.375233,-62.172142],[9E9,9E9,9E9,9E9,9E9,9E9]];
VAR jointtarget jointtarget39:=[[61.733438,-1.607807,28.438952,-14.881241,45.208671,-51.419003],[9E9,9E9,9E9,9E9,9E9,9E9]];
VAR jointtarget jointtarget40:=[[68.174141,-10.149086,41.572711,-31.608162,36.319662,-31.748744],[9E9,9E9,9E9,9E9,9E9,9E9]];
VAR jointtarget jointtarget41:=[[76.699748,-15.930593,53.937,-58.749865,33.657857,0.087443],[9E9,9E9,9E9,9E9,9E9,9E9]];
VAR jointtarget jointtarget42:=[[91.54671,-5.499899,45.445341,-57.683695,42.382179,11.349772],[9E9,9E9,9E9,9E9,9E9,9E9]];
VAR jointtarget jointtarget43:=[[82.339247,-2.485081,34.984726,-35.766629,42.492011,-16.027885],[9E9,9E9,9E9,9E9,9E9,9E9]];
VAR jointtarget jointtarget44:=[[74.605065,3.937552,23.279263,-18.613743,48.727891,-36.777909],[9E9,9E9,9E9,9E9,9E9,9E9]];
VAR jointtarget jointtarget45:=[[68.465803,12.441513,10.60667,-7.679527,58.277252,-49.98753],[9E9,9E9,9E9,9E9,9E9,9E9]];
VAR jointtarget jointtarget46:=[[63.707223,22.385754,-3.139721,-0.909598,69.378075,-57.982641],[9E9,9E9,9E9,9E9,9E9,9E9]];
VAR jointtarget jointtarget47:=[[60.038906,33.687467,-18.540474,3.560439,81.504149,-62.691951],[9E9,9E9,9E9,9E9,9E9,9E9]];
VAR jointtarget jointtarget48:=[[57.202862,47.117234,-37.446982,6.934404,95.204298,-65.069951],[9E9,9E9,9E9,9E9,9E9,9E9]];
VAR jointtarget jointtarget49:=[[57.202862,47.117234,-37.446982,6.934404,95.204298,-65.069951],[9E9,9E9,9E9,9E9,9E9,9E9]];

!speeddata
VAR speeddata Slow:=[100,50,5000,1000];

!tooldata
PERS tooldata Tool:=[True,[[0,0,30],[1,0,0,0]],[0.001,[0,0,0.1],[1,0,0,0],0,0,0]];

!zonedata
VAR zonedata zonedata0:=[True,0,0,0,0,0,0];

Proc Main()
ConfL \On;
ConfJ \On;
SingArea \Wrist;
MoveAbsJ jointtarget0, Slow, zonedata0, Tool;
WaitTime 1;
MoveAbsJ jointtarget1, Slow, zonedata0, Tool;
WaitTime 1;
MoveAbsJ jointtarget2, Slow, zonedata0, Tool;
WaitTime 1;
MoveAbsJ jointtarget3, Slow, zonedata0, Tool;
WaitTime 1;
MoveAbsJ jointtarget4, Slow, zonedata0, Tool;
WaitTime 1;
MoveAbsJ jointtarget5, Slow, zonedata0, Tool;
WaitTime 1;
MoveAbsJ jointtarget6, Slow, zonedata0, Tool;
WaitTime 1;
MoveAbsJ jointtarget7, Slow, zonedata0, Tool;
WaitTime 1;
MoveAbsJ jointtarget8, Slow, zonedata0, Tool;
WaitTime 1;
MoveAbsJ jointtarget9, Slow, zonedata0, Tool;
WaitTime 1;
MoveAbsJ jointtarget10, Slow, zonedata0, Tool;
WaitTime 1;
MoveAbsJ jointtarget11, Slow, zonedata0, Tool;
WaitTime 1;
MoveAbsJ jointtarget12, Slow, zonedata0, Tool;
WaitTime 1;
MoveAbsJ jointtarget13, Slow, zonedata0, Tool;
WaitTime 1;
MoveAbsJ jointtarget14, Slow, zonedata0, Tool;
WaitTime 1;
MoveAbsJ jointtarget15, Slow, zonedata0, Tool;
WaitTime 1;
MoveAbsJ jointtarget16, Slow, zonedata0, Tool;
WaitTime 1;
MoveAbsJ jointtarget17, Slow, zonedata0, Tool;
WaitTime 1;
MoveAbsJ jointtarget18, Slow, zonedata0, Tool;
WaitTime 1;
MoveAbsJ jointtarget19, Slow, zonedata0, Tool;
WaitTime 1;
MoveAbsJ jointtarget20, Slow, zonedata0, Tool;
WaitTime 1;
MoveAbsJ jointtarget21, Slow, zonedata0, Tool;
WaitTime 1;
MoveAbsJ jointtarget22, Slow, zonedata0, Tool;
WaitTime 1;
MoveAbsJ jointtarget23, Slow, zonedata0, Tool;
WaitTime 1;
MoveAbsJ jointtarget24, Slow, zonedata0, Tool;
WaitTime 1;
MoveAbsJ jointtarget25, Slow, zonedata0, Tool;
WaitTime 1;
MoveAbsJ jointtarget26, Slow, zonedata0, Tool;
WaitTime 1;
MoveAbsJ jointtarget27, Slow, zonedata0, Tool;
WaitTime 1;
MoveAbsJ jointtarget28, Slow, zonedata0, Tool;
WaitTime 1;
MoveAbsJ jointtarget29, Slow, zonedata0, Tool;
WaitTime 1;
MoveAbsJ jointtarget30, Slow, zonedata0, Tool;
WaitTime 1;
MoveAbsJ jointtarget31, Slow, zonedata0, Tool;
WaitTime 1;
MoveAbsJ jointtarget32, Slow, zonedata0, Tool;
WaitTime 1;
MoveAbsJ jointtarget33, Slow, zonedata0, Tool;
WaitTime 1;
MoveAbsJ jointtarget34, Slow, zonedata0, Tool;
WaitTime 1;
MoveAbsJ jointtarget35, Slow, zonedata0, Tool;
WaitTime 1;
MoveAbsJ jointtarget36, Slow, zonedata0, Tool;
WaitTime 1;
MoveAbsJ jointtarget37, Slow, zonedata0, Tool;
WaitTime 1;
MoveAbsJ jointtarget38, Slow, zonedata0, Tool;
WaitTime 1;
MoveAbsJ jointtarget39, Slow, zonedata0, Tool;
WaitTime 1;
MoveAbsJ jointtarget40, Slow, zonedata0, Tool;
WaitTime 1;
MoveAbsJ jointtarget41, Slow, zonedata0, Tool;
WaitTime 1;
MoveAbsJ jointtarget42, Slow, zonedata0, Tool;
WaitTime 1;
MoveAbsJ jointtarget43, Slow, zonedata0, Tool;
WaitTime 1;
MoveAbsJ jointtarget44, Slow, zonedata0, Tool;
WaitTime 1;
MoveAbsJ jointtarget45, Slow, zonedata0, Tool;
WaitTime 1;
MoveAbsJ jointtarget46, Slow, zonedata0, Tool;
WaitTime 1;
MoveAbsJ jointtarget47, Slow, zonedata0, Tool;
WaitTime 1;
MoveAbsJ jointtarget48, Slow, zonedata0, Tool;
WaitTime 1;
MoveAbsJ jointtarget49, Slow, zonedata0, Tool;
WaitTime 1;
EndProc
EndModule